public/icons/integrations/messaging.svg

<?xml version="1.0" encoding="UTF-8"?>
<svg id="Layer_1" xmlns="http://www.w3.org/2000/svg" version="1.1" viewBox="0 0 30 30">
  <!-- Generator: Adobe Illustrator 29.6.1, SVG Export Plug-In . SVG Version: 2.1.1 Build 9)  -->
  <path d="M18,7v7h-9.8l-.6.6-.6.6V7h11M19,5H6c-.6,0-1,.4-1,1v14l4-4h10c.5,0,1-.4,1-1V6c0-.6-.5-1-1-1ZM24,9h-2v9h-13v2c0,.5.4,1,1,1h11l4,4v-15c0-.6-.5-1-1-1Z" style="fill: #5f6368;"/>
</svg>

<?xml version="1.0" encoding="utf-8"?>
<!-- Generator: Adobe Illustrator 27.3.1, SVG Export Plug-In . SVG Version: 6.00 Build 0)  -->
<svg version="1.1" id="Layer_1" xmlns="http://www.w3.org/2000/svg" xmlns:xlink="http://www.w3.org/1999/xlink" x="0px" y="0px"
	 viewBox="0 0 30 30" style="enable-background:new 0 0 30 30;" xml:space="preserve">
<path style="fill:none;" d="M3,3h24v24H3V3z"/>
<path d="M18,7v7H8.2l-0.6,0.6L7,15.2V7H18 M19,5H6C5.4,5,5,5.4,5,6v14l4-4h10c0.5,0,1-0.4,1-1V6C20,5.4,19.5,5,19,5z M24,9h-2v9H9v2
	c0,0.5,0.4,1,1,1h11l4,4V10C25,9.4,24.5,9,24,9z"/>
</svg>
